X:1
T:Rigs O' Rye
M:4/4
L:1/8
K:C
 CC-C DC G,- G,2-| G,2- _B,2 A,3/2 G,/2 F,2-| F,4 G, C2 C| C4 D2- E2|\
 F3 E D4| z2 E2 G3 F| E4 z2 D- C-| CE D C- C2 z2| G,2 _B,2 A,3 G,|\
 F, G,- G,2 z4| G,4 C4-| C8|

